ОкеанВКонцеДороги/svg/ch1/balloon9.svg

<svg xmlns="http://www.w3.org/2000/svg" width="280" height="851" fill="none" viewBox="0 0 280 851"><g fill="#cde5f6" opacity=".51"><path d="M110.546 223.829c-3.743 6.573-6.191 21.025-.08 42.512 6.092 21.421 20.654 49.664 50.602 83.618 38.052 43.142 40.234 86.851 29.862 119.544-4.203 13.248-10.466 24.688-17.231 33.55 5.22 2.376 10.809 5.863 16.674 10.725 11.192 9.279 14.46 23.724 13.537 40.421-.924 16.715-6.068 36.126-12.224 55.869-6.19 19.851-13.367 39.944-18.56 58.438-5.196 18.504-8.257 34.947-6.365 47.332 7.77 50.877 32.478 94.308 67.101 115.228l-2.029 3.149c-35.859-21.666-60.966-66.25-68.84-117.804-2.019-13.223 1.26-30.337 6.459-48.854 5.202-18.527 12.474-38.92 18.59-58.537 6.15-19.723 11.168-38.761 12.065-54.991.899-16.249-2.353-29.247-12.219-37.425-5.955-4.937-11.51-8.331-16.584-10.545a85 85 0 0 1-2.354 2.715c-4.254 4.694-8.597 8.385-12.676 10.85-4.033 2.437-8.024 3.805-11.498 3.492-3.148-.283-5.677-1.215-7.482-2.72-1.831-1.525-2.798-3.544-2.943-5.72-.286-4.266 2.549-8.798 7.237-11.847 6.369-4.144 16.301-5.79 28.514-1.262 6.704-8.606 12.999-19.919 17.19-33.13 10.011-31.558 8.03-73.933-29.123-116.055-30.216-34.258-45.101-62.969-51.375-85.028-6.255-21.994-3.989-37.551.424-45.299zm57.066 280.792c-10.738-3.663-19.003-1.921-23.923 1.28-3.961 2.577-5.707 5.983-5.538 8.506.082 1.219.6 2.308 1.635 3.17 1.059.883 2.775 1.619 5.371 1.852 2.27.205 5.395-.692 9.125-2.945 3.682-2.225 7.746-5.651 11.819-10.146a80 80 0 0 0 1.511-1.717"/><path d="m94.126 223.292-8.571 13.99c7.345-.541 22.109-.589 22.398 3.546s10.772-2.525 15.977-6.372l-17.266-12.087c26.914-13.857 71.993-46.492 64.778-149.861-4.436-63.552-129.657-90.274-146.366 4.098-18.27 103.19 46.156 137.858 69.05 146.686"/></g></svg>

<svg width="280" height="851" viewBox="0 0 280 851" fill="none" xmlns="http://www.w3.org/2000/svg">
<g opacity="0.51">
<path d="M110.546 223.829C106.803 230.402 104.355 244.854 110.466 266.341C116.558 287.762 131.12 316.005 161.068 349.959C199.12 393.101 201.302 436.81 190.93 469.503C186.727 482.751 180.464 494.191 173.699 503.053C178.919 505.429 184.508 508.916 190.373 513.778C201.565 523.057 204.833 537.502 203.91 554.199C202.986 570.914 197.842 590.325 191.686 610.068C185.496 629.919 178.319 650.012 173.126 668.506C167.93 687.01 164.869 703.453 166.761 715.838C174.531 766.715 199.239 810.146 233.862 831.066L231.833 834.215C195.974 812.549 170.867 767.965 162.993 716.411C160.974 703.188 164.253 686.074 169.452 667.557C174.654 649.03 181.926 628.637 188.042 609.02C194.192 589.297 199.21 570.259 200.107 554.029C201.006 537.78 197.754 524.782 187.888 516.604C181.933 511.667 176.378 508.273 171.304 506.059C170.523 506.999 169.737 507.904 168.95 508.774C164.696 513.468 160.353 517.159 156.274 519.624C152.241 522.061 148.25 523.429 144.776 523.116C141.628 522.833 139.099 521.901 137.294 520.396C135.463 518.871 134.496 516.852 134.351 514.676C134.065 510.41 136.9 505.878 141.588 502.829C147.957 498.685 157.889 497.039 170.102 501.567C176.806 492.961 183.101 481.648 187.292 468.437C197.303 436.879 195.322 394.504 158.169 352.382C127.953 318.124 113.068 289.413 106.794 267.354C100.539 245.36 102.805 229.803 107.218 222.055L110.546 223.829ZM167.612 504.621C156.874 500.958 148.609 502.7 143.689 505.901C139.728 508.478 137.982 511.884 138.151 514.407C138.233 515.626 138.751 516.715 139.786 517.577C140.845 518.46 142.561 519.196 145.157 519.429C147.427 519.634 150.552 518.737 154.282 516.484C157.964 514.259 162.028 510.833 166.101 506.338C166.605 505.782 167.109 505.209 167.612 504.621Z" fill="#CDE5F6"/>
<path d="M94.1259 223.292L85.5548 237.282C92.9005 236.741 107.664 236.693 107.953 240.828C108.242 244.963 118.725 238.303 123.93 234.456L106.664 222.369C133.578 208.512 178.657 175.877 171.442 72.5076C167.006 8.95626 41.7848 -17.7657 25.0758 76.6057C6.80546 179.796 71.2318 214.464 94.1259 223.292Z" fill="#CDE5F6"/>
</g>
</svg>
